ui/assets/imgs/add.svg

<?xml version="1.0" encoding="utf-8"?>
<!-- Generator: Adobe Illustrator 16.0.0, SVG Export Plug-In . SVG Version: 6.00 Build 0)  -->
<!DOCTYPE svg PUBLIC "-//W3C//DTD SVG 1.1//EN" "http://www.w3.org/Graphics/SVG/1.1/DTD/svg11.dtd">
<svg version="1.1" id="Layer_1" xmlns="http://www.w3.org/2000/svg" xmlns:xlink="http://www.w3.org/1999/xlink" x="0px" y="0px"
	 width="300px" height="300px" viewBox="0 0 300 300" enable-background="new 0 0 300 300" xml:space="preserve">
<path fill-rule="evenodd" clip-rule="evenodd" fill="#454C62" d="M149.996,300C67.165,300,0,232.835,0,149.996
	C0,67.165,67.165,0,149.996,0C232.835,0,300,67.165,300,149.996C300,232.835,232.835,300,149.996,300L149.996,300z M149.996,28.858
	c-66.798,0-121.138,54.34-121.138,121.138c0,66.799,54.34,121.146,121.138,121.146c66.799,0,121.146-54.347,121.146-121.146
	C271.142,83.198,216.795,28.858,149.996,28.858L149.996,28.858z M206.438,164.514h-41.441v41.91c0,10.254-4.57,18.574-14.81,18.574
	h-0.374c-10.247,0-14.817-8.32-14.817-18.574v-41.91H93.562c-10.247,0-18.567-4.088-18.567-14.327v-0.374
	c0-10.246,8.321-14.816,18.567-14.816h41.434V93.562c0-10.247,4.57-18.567,14.817-18.567h0.374c10.239,0,14.327,8.321,14.327,18.567
	v41.435h41.924c10.24,0,18.561,4.57,18.561,14.816v0.374C224.998,160.426,216.678,164.514,206.438,164.514L206.438,164.514z"/>
</svg>

<?xml version="1.0" encoding="utf-8"?>
<!-- Generator: Adobe Illustrator 16.0.0, SVG Export Plug-In . SVG Version: 6.00 Build 0)  -->
<!DOCTYPE svg PUBLIC "-//W3C//DTD SVG 1.1//EN" "http://www.w3.org/Graphics/SVG/1.1/DTD/svg11.dtd">
<svg version="1.1" id="Layer_1" xmlns="http://www.w3.org/2000/svg" xmlns:xlink="http://www.w3.org/1999/xlink" x="0px" y="0px"
	 width="300px" height="300px" viewBox="0 0 300 300" enable-background="new 0 0 300 300" xml:space="preserve">
<g>
	
		<image overflow="visible" width="20" height="20" xlink:href="data:image/jpeg;base64,/9j/4AAQSkZJRgABAgEABQAFAAD/7AARRHVja3kAAQAEAAAAHgAA/+4AIUFkb2JlAGTAAAAAAQMA
EAMCAwYAAAFrAAABdgAAAZf/2wCEABALCwsMCxAMDBAXDw0PFxsUEBAUGx8XFxcXFx8eFxoaGhoX
Hh4jJSclIx4vLzMzLy9AQEBAQEBAQEBAQEBAQEABEQ8PERMRFRISFRQRFBEUGhQWFhQaJhoaHBoa
JjAjHh4eHiMwKy4nJycuKzU1MDA1NUBAP0BAQEBAQEBAQEBAQP/CABEIABUAFQMBIgACEQEDEQH/
xABeAAEBAAAAAAAAAAAAAAAAAAAABwEBAAAAAAAAAAAAAAAAAAAAABABAQAAAAAAAAAAAAAAAAAA
IDARAQAAAAAAAAAAAAAAAAAAADASAQAAAAAAAAAAAAAAAAAAACD/2gAMAwEAAhEDEQAAAKAAAAD/
2gAIAQIAAQUAH//aAAgBAwABBQAf/9oACAEBAAEFAI//2gAIAQICBj8AH//aAAgBAwIGPwAf/9oA
CAEBAQY/AB//2Q==" transform="matrix(15 0 0 15 0 0)">
	</image>
</g>
<path fill-rule="evenodd" clip-rule="evenodd" fill="#454C62" d="M150,300C67.17,300,0.007,232.837,0.007,150
	C0.007,67.17,67.17,0.007,150,0.007c82.837,0,150,67.163,150,149.993C300,232.837,232.837,300,150,300L150,300z M150,28.865
	C83.203,28.865,28.865,83.203,28.865,150S83.203,271.143,150,271.143S271.143,216.797,271.143,150S216.797,28.865,150,28.865
	L150,28.865z M206.44,164.517H165v41.909C165,216.68,160.43,225,150.19,225h-0.374C139.57,225,135,216.68,135,206.426v-41.909
	H93.567C83.32,164.517,75,160.43,75,150.19v-0.374C75,139.57,83.32,135,93.567,135H135V93.567C135,83.32,139.57,75,149.817,75h0.374
	c10.239,0,14.326,8.32,14.326,18.567V135h41.924c10.239,0,18.56,4.57,18.56,14.817v0.374C225,160.43,216.68,164.517,206.44,164.517
	L206.44,164.517z"/>
</svg>
